X:369
T:Dowd's #9
T:Summer in Ireland
R:reel
D:Matt Molloy & Sean Keane: Contentment is Wealth
D:Davy Spillane: Shadow Hunter
Z:id:hn-reel-369
M:C|
K:D
DFAF GFEF|D2FA dABA|~F3A ~G3B|AGFD A,B,CA,|
DFAF GFEF|D2FA dABA|~F3A ~G3B|1 AGFD EDDA,:|2 AGFD EDD2||
|:fd~d2 g2ag|fedf ecA2|fd~d2 gfec|dcde fddA|
dfaf gfeg|fedf ecAF|GABG FAdB|1 AGFD EDD2:|2 AGFD A,B,CA,||
